FINK
CUT[HO HO VIVAT HO HO VIVAT]
REG[Europa, Mitteleuropa, Deutschland]
KEY[F0532  08  G 4/4]
MEL[-5_  1_.11_2_  3_.33_
    4_  5_3_5432  1__0_
    -5_  1_.11_2_  3_.33_
    4_  5_3_5432  1__0_
    1_  5_.55_+1_  6__6_
    5_  4_.34_2_  5__5_
    -5_  1_.11_2_  3_.33_
    4_  5_3_5432  1__0_ //] >>
FCT[Studenten -, Trink - Lied]
